images/imposter.svg

<svg height="80" viewBox="0 0 115 80" width="115" xmlns="http://www.w3.org/2000/svg"><g fill="none" fill-rule="evenodd"><g fill-rule="nonzero" transform="translate(25 8)"><g fill="#2470c8"><path d="m33 48c-6.688 0-12.6295714-5.373-15.0968571-13.5054-2.2365715-.135-3.9031429-2.9889-3.9031429-6.7446 0-3.8475 1.7507143-6.75 4.0714286-6.75.1275714 0 .3175714.0297.4397143.0648.7464285.0729 1.197.7182 1.121 1.4607s-.8251429 1.2501-1.5797143 1.1907c-.0108572 0-.0271429-.0027-.0407143-.0054-.3827143.1458-1.2974286 1.5633-1.2974286 4.0392 0 2.6136 1.0178572 4.05 1.3571429 4.05.3691428-.2268.8685714-.2943 1.2675714-.1323.4017143.1647.741.4752.8468571.8937 1.9 7.6194 7.049 12.7386 12.8141429 12.7386s10.9141429-5.1192 12.8141429-12.7386c.1058571-.4185.4044285-.7614.8034285-.9234.4017143-.162.8577143-.1242 1.2268572.1026.4451428.0162 1.4412857-1.377 1.4412857-3.9906 0-2.4759-.9147143-3.8934-1.2974286-4.0392-.0135714.0027-.0298571.0027-.0407143.0054-.7382857.0729-1.4114285-.4671-1.4847143-1.2096-.0732857-.7425.4695715-1.404 1.216-1.4769 2.6898572.0027 4.3211429 2.8728 4.3211429 6.7203 0 3.7557-1.6665714 6.6096-3.9031429 6.7446-2.4672857 8.1324-8.4088571 13.5054-15.0968571 13.5054z"/><g transform="translate(20 21)"><path d="m13.2142857 6.5c0 2.691-3.98571427 4.875-7.14285713 4.875s-4.28571428-2.184-4.28571428-4.875-1.13142858-4.875 5.71428571-4.875c6.6085714 0 5.7142857 2.184 5.7142857 4.875z"/><path d="m6.07142857 13c-3.57714286 0-5.71428571-2.431-5.71428571-6.5 0-.312-.01714286-.61425-.03428572-.90675-.06571428-1.17325-.14571428-2.6325.83714286-3.82525 1.03714286-1.2545 2.87428571-1.768 6.34-1.768 3.3342857 0 5.2.52975 6.2457143 1.768 1.0171428 1.209.96 2.72025.9171428 3.93575-.0114285.26-.02.5265-.02.79625 0 4.02675-4.99142853 6.5-8.57142853 6.5zm1.42857143-9.75c-3.38 0-4.11428571.56875-4.25714286.74425-.13714285.16575-.1.78975-.06857143 1.39425.02.3575.04.73125.04 1.1115 0 2.24575.88285715 3.25 2.85714286 3.25 2.76 0 5.71428573-1.90775 5.71428573-3.25 0-.3185.0114286-.6305.0228571-.93275.0257143-.689.0514286-1.34225-.1257143-1.55025-.1942857-.2275-.9914285-.767-4.1828571-.767z"/></g><g transform="translate(31 21)"><path d="m1.82571429 6.5c0 2.691 3.94571428 4.875 7.10285714 4.875 3.15714287 0 4.32571427-2.184 4.32571427-4.875s1.1314286-4.875-5.7142857-4.875c-6.60571429 0-5.71428571 2.184-5.71428571 4.875z"/><path d="m8.92857143 13c-3.56285714 0-8.53142857-2.47325-8.53142857-6.5 0-.26975-.00857143-.53625-.02-.79625-.04571429-1.2155-.10285715-2.72675.91714285-3.93575 1.04571429-1.23825 2.91428572-1.768 6.24571429-1.768 3.4657143 0 5.3028571.5135 6.34 1.768.9828571 1.1895.9 2.64875.8342857 3.822-.0142857.2925-.0342857.598-.0342857.90675.0028571 4.0105-2.2028571 6.50325-5.75142857 6.50325zm-1.38857143-9.75c-3.19142857 0-3.98857143.5395-4.18285714.767-.17714286.208-.15142857.86125-.12571429 1.55025.01142857.30225.02285714.61425.02285714.93275 0 1.34225 2.93428572 3.25 5.67428572 3.25 2.00285717 0 2.89714287-1.00425 2.89714287-3.25 0-.38025.02-.754.04-1.1115.0342857-.6045.0685714-1.2285-.0657143-1.39425-.1457143-.1755-.88-.74425-4.26-.74425z"/></g></g><path d="m48.9041348 11.1477033c8.9828217 1.579515 12.0958652 3.3081187 12.0958652 6.18563 0 5.3828866-12.4449976 7.6666667-28 7.6666667s-28-2.2837801-28-7.6666667c0-2.8775113 3.11304355-4.606115 12.0958652-6.18563 2.4632338-7.0306553 6.4794385-12.1477033 10.5041348-12.1477033 2.0630652 0 3.8734709.69575027 5.4 1.81649333 1.5265291-1.12074306 3.3369348-1.81649333 5.4-1.81649333 4.0246963 0 8.040901 5.117048 10.5041348 12.1477033zm-3.481101 1.0601371.0000917-.0001086c.1063911-.1258488.0909121-.3047547-.0477352-.4273172-.1365358-.1200166-.3787496-.1091428-.527089.0404038-.3986698.3937479-1.2456544.894947-2.6492124 1.3581398-2.199485.7258593-5.220858 1.1543751-9.1990889 1.1543751-3.9117988 0-6.9007622-.4148574-9.0944691-1.1207337-1.4217674-.4574868-2.2894429-.9554745-2.7913093-1.4311733-.1237802-.1373617-.346032-.1538248-.49417-.0321355-.1413874.1159291-.1602246.3199794-.0430854.4585496.0813153.0962146.2540515.2526968.540311.450249.4714886.3253816 1.099307.6502904 1.9054183.9536602 2.3049881.867453 5.5764924 1.3882504 9.9773045 1.3882504s7.6723164-.5207974 9.9773045-1.3882504c.8061113-.3033698 1.4339297-.6282786 1.9054183-.9536602.2862595-.1975522.4589957-.3540344.540311-.450249zm1.5274866 1.2910402c-.0000153.000018-.0000306.0000361-.0000459.0000542l.0000917-.0001085c-.0000153.0000181-.0000305.0000362-.0000458.0000543z" fill="#b9d9ff" stroke="#2470c8" stroke-width="2"/><g fill="#b9d9ff" stroke="#2470c8" stroke-width="2" transform="translate(0 40)"><path d="m24.7995114 17.0951918.0003818.0001855 7.325745 3.5627525c1.1122713.5412044 1.6746681 1.6855974 1.2202854 2.7789646-.4045343.9734185-1.4954516 1.5629056-2.6735308 1.5629056h-28.84556774c-1.50492035 0-2.82682506-.9648103-2.82682506-2.3333333 0-5.897008 3.89898459-11.1456928 10.59091943-14.40367987 1.04811727-.51646044 2.41409677-.41631747 3.33699677.25727376l5.7070015 4.16533331c.4908722.3582699 1.1085693.6368948 1.7902766.8019984l.6822079.1677487c.9118723.2232002 1.6481333.8116919 1.9129495 1.623511.2281097.7118841.8508067 1.3653381 1.7791597 1.8163398z"/><path d="m55.4030414 8.26447819c6.6975015 3.25684031 10.5969586 8.50470321 10.5969586 14.40218851 0 1.368523-1.3219047 2.3333333-2.8268251 2.3333333h-28.8455677c-1.1787018 0-2.2689799-.5867803-2.6735308-1.560239-.4543827-1.0933672.1080141-2.2377602 1.2202854-2.7789645l7.3207999-3.5621233c.9312204-.4545387 1.5531752-1.1066811 1.7819051-1.8204804.262615-.8098192.9981283-1.3965256 1.9132375-1.6205171l.6805938-.1655797c.6783076-.1642739 1.2960047-.4428989 1.7868769-.8011687l5.7106552-4.16800004c.9221999-.67308022 2.2868072-.77358193 3.3346108-.25844812z"/><path d="m17.9583333 13.6844639-2.4584792-.806218c-.3418725-.1152784-.6537119-.3051287-.9102084-.5576791l-6.77083329-6.66666665c-.58031172-.57138385-.82162942-1.40558442-.63090645-2.19429335.18973867-.78931285.77655986-1.41940078 1.55150489-1.67374171l8.12765945-2.66753539c.9920453-.32252271 2.0800124.03544413 2.672848.88785648l12.9600012 18.56158072 12.9564016-18.56007076c.5937552-.85373156 1.6881215-1.2129082 2.6765597-.88849772l8.119868 2.66499765c.7773788.25050079 1.3664668.88430309 1.55632 1.67409614.1912663.79095999-.0482734 1.62225053-.6305895 2.19560794l-6.7643257 6.66020005c-.2599133.2606538-.5800989.4567886-.9243978.5667014l-2.4480891.8034754v.9823897c0 .7846541-.3965517 1.5145166-1.0552936 1.9453758l-12.133357 7.9612299c-.1378655.1005514-.2867362.1812948-.44595.2470348-.288144.1189756-.5964738.1796928-.9070661.1796928-.3030884 0-.6042119-.0588367-.9016494-.1770262-.147932-.0610816-.2921577-.1390689-.413559-.221654l-12.1698781-7.9884344c-.6600285-.4317021-1.0565802-1.1615646-1.0565802-1.9462187z"/></g></g><g stroke="#2470c8" stroke-linecap="round" stroke-linejoin="round" stroke-width="5"><path d="m23.3666724 47.3265224-13.3666724 3.6734776"/><path d="m21 33h-15"/><path d="m25 22-13-6"/><path d="m104.366672 50.3265224-13.366672 3.6734776" transform="matrix(-1 0 0 1 197 0)"/><path d="m102 36h-15" transform="matrix(-1 0 0 1 189 0)"/><path d="m106 25-13-6" transform="matrix(-1 0 0 1 199 0)"/></g></g></svg>

<?xml version="1.0" encoding="UTF-8" standalone="no"?>
<svg width="115px" height="80px" viewBox="0 0 115 80" version="1.1" xmlns="http://www.w3.org/2000/svg" xmlns:xlink="http://www.w3.org/1999/xlink">
    <!-- Generator: Sketch 50.2 (55047) - http://www.bohemiancoding.com/sketch -->
    <title>imposter</title>
    <desc>Created with Sketch.</desc>
    <defs></defs>
    <g id="imposter" stroke="none" stroke-width="1" fill="none" fill-rule="evenodd">
        <g id="Group" transform="translate(25.000000, 8.000000)" fill-rule="nonzero">
            <path d="M33,48 C26.312,48 20.3704286,42.627 17.9031429,34.4946 C15.6665714,34.3596 14,31.5057 14,27.75 C14,23.9025 15.7507143,21 18.0714286,21 C18.199,21 18.389,21.0297 18.5111429,21.0648 C19.2575714,21.1377 19.7081429,21.783 19.6321429,22.5255 C19.5561429,23.268 18.807,23.7756 18.0524286,23.7162 C18.0415714,23.7162 18.0252857,23.7135 18.0117143,23.7108 C17.629,23.8566 16.7142857,25.2741 16.7142857,27.75 C16.7142857,30.3636 17.7321429,31.8 18.0714286,31.8 C18.4405714,31.5732 18.94,31.5057 19.339,31.6677 C19.7407143,31.8324 20.08,32.1429 20.1858571,32.5614 C22.0858571,40.1808 27.2348571,45.3 33,45.3 C38.7651429,45.3 43.9141429,40.1808 45.8141429,32.5614 C45.92,32.1429 46.2185714,31.8 46.6175714,31.638 C47.0192857,31.476 47.4752857,31.5138 47.8444286,31.7406 C48.2895714,31.7568 49.2857143,30.3636 49.2857143,27.75 C49.2857143,25.2741 48.371,23.8566 47.9882857,23.7108 C47.9747143,23.7135 47.9584286,23.7135 47.9475714,23.7162 C47.2092857,23.7891 46.5361429,23.2491 46.4628571,22.5066 C46.3895714,21.7641 46.9324286,21.1026 47.6788571,21.0297 C50.3687143,21.0324 52,23.9025 52,27.75 C52,31.5057 50.3334286,34.3596 48.0968571,34.4946 C45.6295714,42.627 39.688,48 33,48 Z" id="Shape" fill="#2470C8"></path>
            <g transform="translate(20.000000, 21.000000)" fill="#2470C8" id="Shape">
                <path d="M13.2142857,6.5 C13.2142857,9.191 9.22857143,11.375 6.07142857,11.375 C2.91428571,11.375 1.78571429,9.191 1.78571429,6.5 C1.78571429,3.809 0.654285714,1.625 7.5,1.625 C14.1085714,1.625 13.2142857,3.809 13.2142857,6.5 Z"></path>
                <path d="M6.07142857,13 C2.49428571,13 0.357142857,10.569 0.357142857,6.5 C0.357142857,6.188 0.34,5.88575 0.322857143,5.59325 C0.257142857,4.42 0.177142857,2.96075 1.16,1.768 C2.19714286,0.5135 4.03428571,0 7.5,0 C10.8342857,0 12.7,0.52975 13.7457143,1.768 C14.7628571,2.977 14.7057143,4.48825 14.6628571,5.70375 C14.6514286,5.96375 14.6428571,6.23025 14.6428571,6.5 C14.6428571,10.52675 9.65142857,13 6.07142857,13 Z M7.5,3.25 C4.12,3.25 3.38571429,3.81875 3.24285714,3.99425 C3.10571429,4.16 3.14285714,4.784 3.17428571,5.3885 C3.19428571,5.746 3.21428571,6.11975 3.21428571,6.5 C3.21428571,8.74575 4.09714286,9.75 6.07142857,9.75 C8.83142857,9.75 11.7857143,7.84225 11.7857143,6.5 C11.7857143,6.1815 11.7971429,5.8695 11.8085714,5.56725 C11.8342857,4.87825 11.86,4.225 11.6828571,4.017 C11.4885714,3.7895 10.6914286,3.25 7.5,3.25 Z"></path>
            </g>
            <g transform="translate(31.000000, 21.000000)" fill="#2470C8" id="Shape">
                <path d="M1.82571429,6.5 C1.82571429,9.191 5.77142857,11.375 8.92857143,11.375 C12.0857143,11.375 13.2542857,9.191 13.2542857,6.5 C13.2542857,3.809 14.3857143,1.625 7.54,1.625 C0.934285714,1.625 1.82571429,3.809 1.82571429,6.5 Z"></path>
                <path d="M8.92857143,13 C5.36571429,13 0.397142857,10.52675 0.397142857,6.5 C0.397142857,6.23025 0.388571429,5.96375 0.377142857,5.70375 C0.331428571,4.48825 0.274285714,2.977 1.29428571,1.768 C2.34,0.52975 4.20857143,0 7.54,0 C11.0057143,0 12.8428571,0.5135 13.88,1.768 C14.8628571,2.9575 14.78,4.41675 14.7142857,5.59 C14.7,5.8825 14.68,6.188 14.68,6.49675 C14.6828571,10.50725 12.4771429,13 8.92857143,13 Z M7.54,3.25 C4.34857143,3.25 3.55142857,3.7895 3.35714286,4.017 C3.18,4.225 3.20571429,4.87825 3.23142857,5.56725 C3.24285714,5.8695 3.25428571,6.1815 3.25428571,6.5 C3.25428571,7.84225 6.18857143,9.75 8.92857143,9.75 C10.9314286,9.75 11.8257143,8.74575 11.8257143,6.5 C11.8257143,6.11975 11.8457143,5.746 11.8657143,5.3885 C11.9,4.784 11.9342857,4.16 11.8,3.99425 C11.6542857,3.81875 10.92,3.25 7.54,3.25 Z"></path>
            </g>
            <path d="M48.9041348,11.1477033 C57.8869565,12.7272183 61,14.455822 61,17.3333333 C61,22.7162199 48.5550024,25 33,25 C17.4449976,25 5,22.7162199 5,17.3333333 C5,14.455822 8.11304355,12.7272183 17.0958652,11.1477033 C19.559099,4.117048 23.5753037,-1 27.6,-1 C29.6630652,-1 31.4734709,-0.304249728 33,0.816493333 C34.5265291,-0.304249728 36.3369348,-1 38.4,-1 C42.4246963,-1 46.440901,4.117048 48.9041348,11.1477033 Z M45.4230338,12.2078404 L45.4231255,12.2077318 C45.5295166,12.081883 45.5140376,11.9029771 45.3753903,11.7804146 C45.2388545,11.660398 44.9966407,11.6712718 44.8483013,11.8208184 C44.4496315,12.2145663 43.6026469,12.7157654 42.1990889,13.1789582 C39.9996039,13.9048175 36.9782309,14.3333333 33,14.3333333 C29.0882012,14.3333333 26.0992378,13.9184759 23.9055309,13.2125996 C22.4837635,12.7551128 21.616088,12.2571251 21.1142216,11.7814263 C20.9904414,11.6440646 20.7681896,11.6276015 20.6200516,11.7492908 C20.4786642,11.8652199 20.459827,12.0692702 20.5769662,12.2078404 C20.6582815,12.304055 20.8310177,12.4605372 21.1172772,12.6580894 C21.5887658,12.983471 22.2165842,13.3083798 23.0226955,13.6117496 C25.3276836,14.4792026 28.5991879,15 33,15 C37.4008121,15 40.6723164,14.4792026 42.9773045,13.6117496 C43.7834158,13.3083798 44.4112342,12.983471 44.8827228,12.6580894 C45.1689823,12.4605372 45.3417185,12.304055 45.4230338,12.2078404 Z M46.9505204,13.4988806 C46.9505051,13.4988986 46.9504898,13.4989167 46.9504745,13.4989348 L46.9505662,13.4988263 C46.9505509,13.4988444 46.9505357,13.4988625 46.9505204,13.4988806 Z" id="Shape" stroke="#2470C8" stroke-width="2" fill="#B9D9FF"></path>
            <g transform="translate(0.000000, 40.000000)" fill="#B9D9FF" id="Shape" stroke="#2470C8" stroke-width="2">
                <path d="M24.7995114,17.0951918 L24.7998932,17.0953773 L32.1256382,20.6581298 C33.2379095,21.1993342 33.8003063,22.3437272 33.3459236,23.4370944 C32.9413893,24.4105129 31.850472,25 30.6723928,25 L1.82682506,25 C0.321904707,25 -1,24.0351897 -1,22.6666667 C-1,16.7696587 2.89898459,11.5209739 9.59091943,8.26298683 C10.6390367,7.74652639 12.0050162,7.84666936 12.9279162,8.52026059 L18.6349177,12.6855939 C19.1257899,13.0438638 19.743487,13.3224887 20.4251943,13.4875923 L21.1074022,13.655341 C22.0192745,13.8785412 22.7555355,14.4670329 23.0203517,15.278852 C23.2484614,15.9907361 23.8711584,16.6441901 24.7995114,17.0951918 Z"></path>
                <path d="M55.4030414,8.26447819 C62.1005429,11.5213185 66,16.7691814 66,22.6666667 C66,24.0351897 64.6780953,25 63.1731749,25 L34.3276072,25 C33.1489054,25 32.0586273,24.4132197 31.6540764,23.439761 C31.1996937,22.3463938 31.7620905,21.2020008 32.8743618,20.6607965 L40.1951617,17.0986732 C41.1263821,16.6441345 41.7483369,15.9919921 41.9770668,15.2781928 C42.2396818,14.4683736 42.9751951,13.8816672 43.8903043,13.6576757 L44.5708981,13.492096 C45.2492057,13.3278221 45.8669028,13.0491971 46.357775,12.6909273 L52.0684302,8.52292726 C52.9906301,7.84984704 54.3552374,7.74934533 55.403041,8.26447914 Z"></path>
                <path d="M17.9583333,13.6844639 L15.4998541,12.8782459 C15.1579816,12.7629675 14.8461422,12.5731172 14.5896457,12.3205668 L7.81881241,5.65390015 C7.23850069,5.0825163 6.99718299,4.24831573 7.18790596,3.4596068 C7.37764463,2.67029395 7.96446582,2.04020602 8.73941085,1.78586509 L16.8670703,-0.881670301 C17.8591156,-1.20419301 18.9470827,-0.846226168 19.5399183,0.00618618311 L32.4999195,18.5677669 L45.4563211,0.00769614281 C46.0500763,-0.846035422 47.1444426,-1.20521206 48.1328808,-0.880801575 L56.2527488,1.78419607 C57.0301276,2.03469686 57.6192156,2.66849916 57.8090688,3.45829221 C58.0003351,4.2492522 57.7607954,5.08054274 57.1784793,5.65390015 L50.4141536,12.3141002 C50.1542403,12.574754 49.8340547,12.7708888 49.4897558,12.8808016 L47.0416667,13.684277 L47.0416667,14.6666667 C47.0416667,15.4513208 46.645115,16.1811833 45.9863731,16.6120425 L33.8530161,24.5732724 C33.7151506,24.6738238 33.5662799,24.7545672 33.4070661,24.8203072 C33.1189221,24.9392828 32.8105923,25 32.5,25 C32.1969116,25 31.8957881,24.9411633 31.5983506,24.8229738 C31.4504186,24.7618922 31.3061929,24.6839049 31.1847916,24.6013198 L19.0149135,16.6128854 C18.354885,16.1811833 17.9583333,15.4513208 17.9583333,14.6666667 L17.9583333,13.6844639 Z"></path>
            </g>
        </g>
        <path d="M23.3666724,47.3265224 L10,51" id="Path-2" stroke="#2470C8" stroke-width="5" stroke-linecap="round" stroke-linejoin="round"></path>
        <path d="M21,33 L6,33" id="Path-2" stroke="#2470C8" stroke-width="5" stroke-linecap="round" stroke-linejoin="round"></path>
        <path d="M25,22 L12,16" id="Path-2" stroke="#2470C8" stroke-width="5" stroke-linecap="round" stroke-linejoin="round"></path>
        <path d="M104.366672,50.3265224 L91,54" id="Path-2" stroke="#2470C8" stroke-width="5" stroke-linecap="round" stroke-linejoin="round" transform="translate(98.500000, 52.000000) scale(-1, 1) translate(-98.500000, -52.000000) "></path>
        <path d="M102,36 L87,36" id="Path-2" stroke="#2470C8" stroke-width="5" stroke-linecap="round" stroke-linejoin="round" transform="translate(94.500000, 36.000000) scale(-1, 1) translate(-94.500000, -36.000000) "></path>
        <path d="M106,25 L93,19" id="Path-2" stroke="#2470C8" stroke-width="5" stroke-linecap="round" stroke-linejoin="round" transform="translate(99.500000, 22.000000) scale(-1, 1) translate(-99.500000, -22.000000) "></path>
    </g>
</svg>
